X:12
T:Miss Primrose
T: From Harp and Claymore
C: J. Scott Skinner
R: strathspey
M:4/4
L:1/16
Z: Jason R. Fruit <jason@starlight-glimmer>
U: U=!tenuto!
K:A
{B,A,G,}A,3C E2>>G2 {G}(!<(![AA]2>>Uc2) /([ee]2>>U!<)!g2) | !>(!agfe fedc BAGF EDC!>)!B, | (A,2>>UC2) (E2>>UG2) {G}(!<(![AA]2>>Uc2) /([ee]2>>U!<)!g2) |  bagf e!0!e'3 c'a3 "_[sic]"[aA]4 :|
c'2 | !>!e'2>c'2 .a2.c'2 e2c'2a2e'2 | d'2>b2 .g2.e2 d2B2G2b2 | !>!!0!e'2>c'2 a2c'2 e2a2c2a2 | bagf e2<!0!e'2 c'2<a2 [aA]2>c'2 |
!>!e'3c' .a2.c'2 e2c'2a2c'2 | !>!d'3b .g2.e2 (dBG2) (EDB,2) | (A,2>>UC2) (E2>>UG2) {G}[AA]2>>c2 [ee]2>>a2 | .b.a.g.f e!0!e'3 c'a3 [aA]4 |]

